X: 180
T: Hobb Dye
B: canberra pickers and fiddlers
B: old time tunes update
B: tunes
M:C|
L:1/8
R: Reel
Q: 1/4=100
K:G
V:1 
DE|"G"G2A2 Bd BA|G6 AB|"C"c2e2 ag e2|g6 AB|
e2a2 ag e2|"G"d2d2g2D2|G2A2"D7"BdBA|"G"G6:|
|:GA|"G"B2g2B2g2|B2 gB g2 AB|"C"c2a2c2a2|c2 ac a2e2|
"D7"fafe d4-|d2 e2 fafe|d6 e2|fafe d2B2|"G"G6:|
% abcbook-tune_id 67a7d9ec4980fdd508de08c7
% abcbook-tune_composer_id 
% abcbook-link-0 https://www.youtube.com/watch?v=W-uIY4syZ24
% abcbook-link-title-0 Hobb Dye
% abcbook-boost 0
% abcbook-difficulty 0
% abcbook-tags old time tunes
% abcbook-tablature 
% abcbook-transpose 
% abcbook-tuning GDAD
% abcbook-lastupdated 1739166309677
% abcbook-src-url 
% abcbook-soundfonts 
% abcbook-repeats 1


